src/lib/images/icons/exchange.svg

<svg width="39" height="32" viewBox="0 0 39 32" fill="none" xmlns="http://www.w3.org/2000/svg">
<path d="M22.4001 0H16.0001C7.16274 0 0 7.16274 0 16C0 24.8373 7.16274 32 16 32H22.4C31.2373 32 38.4001 24.8373 38.4001 16C38.4001 7.16274 31.2373 0 22.4001 0ZM12.0056 28.1646C6.89206 26.4868 3.20003 21.6751 3.20003 16C3.20003 10.3249 6.89206 5.51318 12.0056 3.83543C11.9936 3.84563 11.982 3.85628 11.9702 3.86656C11.9058 3.92191 11.8424 3.97816 11.7789 4.03456C11.7414 4.06786 11.7035 4.10078 11.6664 4.13438C11.5928 4.20098 11.5204 4.26863 11.4481 4.33651C11.422 4.36103 11.3954 4.38496 11.3696 4.40963C11.2719 4.50256 11.1755 4.59676 11.0802 4.69208C11.0585 4.71376 11.0375 4.73603 11.016 4.75778C10.9427 4.83196 10.8698 4.90651 10.7979 4.98211C10.7641 5.01773 10.731 5.05403 10.6975 5.09003C10.639 5.15273 10.5805 5.21558 10.523 5.27926C10.4864 5.31983 10.4504 5.36108 10.4141 5.40203C10.3608 5.46233 10.3076 5.52278 10.2551 5.58383C10.218 5.62703 10.1815 5.67061 10.1449 5.71418C10.0944 5.77426 10.0442 5.83448 9.99466 5.89531C9.95799 5.94031 9.92169 5.98553 9.88547 6.03091C9.83694 6.09173 9.78886 6.15286 9.74124 6.21443C9.70576 6.26026 9.67044 6.30623 9.63541 6.35243C9.58801 6.41506 9.54129 6.47813 9.49479 6.54151C9.46104 6.58756 9.42721 6.63346 9.39391 6.67988C9.34689 6.74543 9.30069 6.81159 9.25464 6.87781C9.22336 6.92281 9.19179 6.96766 9.16096 7.01296C9.11236 7.08444 9.06481 7.15666 9.01734 7.22896C8.99049 7.26991 8.96304 7.31049 8.93656 7.35174C8.87904 7.44114 8.82279 7.53151 8.76699 7.62211C8.75169 7.64694 8.73586 7.67139 8.72064 7.69636C8.65021 7.81216 8.58121 7.92894 8.51364 8.04669C8.49519 8.07886 8.47749 8.11164 8.45926 8.14396C8.41074 8.22999 8.36236 8.31609 8.31534 8.40309C8.29111 8.44786 8.26786 8.49316 8.24401 8.53824C8.20419 8.61361 8.16444 8.68899 8.12581 8.76511C8.10061 8.81484 8.07609 8.86494 8.05134 8.91496C8.01556 8.98734 7.97994 9.05986 7.94514 9.13284C7.92024 9.18511 7.89594 9.23769 7.87164 9.29026C7.83841 9.36204 7.80556 9.43404 7.77339 9.50649C7.74954 9.56019 7.72599 9.61411 7.70266 9.66811C7.67146 9.74049 7.64079 9.81309 7.61064 9.88599C7.58814 9.94036 7.56579 9.99474 7.54389 10.0494C7.51419 10.1235 7.48531 10.198 7.45666 10.2726C7.43596 10.3266 7.41519 10.3805 7.39501 10.4348C7.36629 10.5122 7.33861 10.5901 7.31109 10.6681C7.29271 10.7201 7.27396 10.772 7.25611 10.8243C7.22716 10.9091 7.19949 10.9946 7.17189 11.0801C7.15704 11.126 7.14159 11.1718 7.12711 11.218C7.09149 11.3318 7.05744 11.4464 7.02436 11.5613C7.01911 11.5795 7.01334 11.5975 7.00816 11.6157C6.97029 11.7491 6.93414 11.8832 6.89964 12.0179C6.88914 12.059 6.87961 12.1005 6.86941 12.1417C6.84616 12.2357 6.82306 12.3296 6.80146 12.4243C6.78946 12.4768 6.77851 12.5297 6.76704 12.5824C6.74874 12.6665 6.73059 12.7505 6.71356 12.8351C6.70216 12.892 6.69159 12.9491 6.68079 13.0063C6.66541 13.0874 6.65034 13.1687 6.63616 13.2502C6.62589 13.3094 6.61628 13.3688 6.60668 13.4282C6.59371 13.5085 6.58119 13.5889 6.56941 13.6695C6.56064 13.7298 6.55216 13.7903 6.54406 13.8508C6.53318 13.9318 6.52306 14.0129 6.51339 14.0943C6.50626 14.1546 6.49921 14.2149 6.49268 14.2754C6.48383 14.3582 6.47589 14.4413 6.46831 14.5244C6.46291 14.5838 6.45728 14.6432 6.45248 14.7027C6.44551 14.7893 6.43988 14.8763 6.43426 14.9633C6.43066 15.0197 6.42654 15.076 6.42354 15.1325C6.41836 15.2289 6.41483 15.3257 6.41138 15.4226C6.40973 15.4701 6.40726 15.5174 6.40598 15.5649C6.40208 15.7096 6.39991 15.8546 6.39991 16.0002C6.39991 16.1458 6.40208 16.2909 6.40598 16.4355C6.40726 16.4831 6.40973 16.5303 6.41138 16.5778C6.41483 16.6746 6.41836 16.7715 6.42354 16.8679C6.42654 16.9245 6.43066 16.9808 6.43426 17.0372C6.43981 17.1242 6.44551 17.2111 6.45248 17.2977C6.45728 17.3573 6.46291 17.4166 6.46831 17.476C6.47589 17.5592 6.48383 17.6423 6.49268 17.7251C6.49913 17.7855 6.50619 17.8458 6.51339 17.9061C6.52306 17.9875 6.53318 18.0687 6.54406 18.1497C6.55216 18.2102 6.56064 18.2706 6.56941 18.3309C6.58119 18.4116 6.59371 18.492 6.60668 18.5722C6.61628 18.6316 6.62589 18.691 6.63616 18.7503C6.65026 18.8319 6.66541 18.913 6.68079 18.9942C6.69159 19.0512 6.70216 19.1085 6.71356 19.1654C6.73051 19.2499 6.74874 19.334 6.76704 19.4181C6.77851 19.4708 6.78946 19.5237 6.80146 19.5762C6.82306 19.6707 6.84616 19.7648 6.86941 19.8588C6.87961 19.8999 6.88906 19.9415 6.89964 19.9825C6.93414 20.1173 6.97021 20.2514 7.00816 20.3847C7.01334 20.403 7.01911 20.4209 7.02436 20.4391C7.05751 20.554 7.09156 20.6686 7.12711 20.7825C7.14159 20.8287 7.15704 20.8743 7.17189 20.9204C7.19949 21.0059 7.22716 21.0913 7.25611 21.1761C7.27396 21.2284 7.29271 21.2803 7.31109 21.3324C7.33861 21.4104 7.36629 21.4883 7.39501 21.5657C7.41519 21.62 7.43596 21.6739 7.45674 21.728C7.48531 21.8025 7.51419 21.8769 7.54389 21.951C7.56579 22.0057 7.58821 22.0602 7.61071 22.1146C7.64086 22.1875 7.67154 22.2601 7.70274 22.3325C7.72606 22.3865 7.74954 22.4404 7.77346 22.4941C7.80564 22.5665 7.83849 22.6384 7.87171 22.7103C7.89609 22.7629 7.92039 22.8155 7.94529 22.8678C7.98001 22.9407 8.01556 23.0132 8.05134 23.0855C8.07609 23.1355 8.10061 23.1857 8.12589 23.2355C8.16451 23.3115 8.20426 23.387 8.24409 23.4623C8.26786 23.5074 8.29119 23.5527 8.31541 23.5974C8.36236 23.6842 8.41059 23.7702 8.45904 23.856C8.47741 23.8886 8.49511 23.9215 8.51371 23.9539C8.58129 24.0716 8.65021 24.1884 8.72064 24.3042C8.73579 24.3291 8.75169 24.3535 8.76699 24.3784C8.82279 24.469 8.87904 24.5594 8.93656 24.6488C8.96311 24.69 8.99056 24.7307 9.01749 24.7717C9.06489 24.8439 9.11236 24.916 9.16089 24.9874C9.19179 25.0329 9.22336 25.0777 9.25471 25.1228C9.30076 25.189 9.34689 25.2551 9.39391 25.3206C9.42729 25.367 9.46111 25.413 9.49494 25.4591C9.54136 25.5223 9.58809 25.5854 9.63541 25.6479C9.67044 25.6941 9.70584 25.7401 9.74132 25.786C9.78894 25.8475 9.83694 25.9086 9.88547 25.9695C9.92169 26.0148 9.95799 26.0601 9.99466 26.1051C10.0442 26.1658 10.0943 26.2261 10.1448 26.2861C10.1815 26.3298 10.2181 26.3734 10.2552 26.4167C10.3076 26.4777 10.3607 26.538 10.414 26.5983C10.4503 26.6393 10.4864 26.6805 10.5231 26.7212C10.5806 26.7848 10.6389 26.8474 10.6973 26.9101C10.7309 26.9462 10.7642 26.9826 10.7981 27.0183C10.8696 27.0936 10.9422 27.1677 11.0151 27.2415C11.037 27.2637 11.0584 27.2864 11.0804 27.3084C11.1756 27.4037 11.2721 27.4978 11.3696 27.5907C11.3957 27.6155 11.4223 27.6396 11.4485 27.6642C11.5206 27.732 11.593 27.7995 11.6664 27.8659C11.7038 27.8997 11.7419 27.9328 11.7796 27.9663C11.8428 28.0225 11.9061 28.0786 11.9702 28.1337C11.982 28.1436 11.9936 28.1544 12.0056 28.1646ZM22.4001 28.8C15.3301 28.8 9.60001 23.07 9.60001 16C9.60001 8.93004 15.3301 3.19995 22.4001 3.19995C29.47 3.19995 35.2 8.93004 35.2 16C35.2 23.07 29.47 28.8 22.4001 28.8Z" fill="white"/>
</svg>

<svg width="39" height="32" fill="none" xmlns="http://www.w3.org/2000/svg"><path d="M22.4 0H16C7.163 0 0 7.163 0 16s7.163 16 16 16h6.4c8.837 0 16-7.163 16-16s-7.163-16-16-16zM12.006 28.165C6.892 26.487 3.2 21.675 3.2 16c0-5.675 3.692-10.487 8.806-12.165l-.036.032c-.064.055-.128.111-.191.168l-.113.1a16.19 16.19 0 0 0-.218.202c-.026.024-.053.048-.078.073-.098.093-.194.187-.29.282l-.064.066-.218.224-.1.108-.175.19-.109.122-.159.182-.11.13a15.16 15.16 0 0 0-.65.828c-.034.046-.068.091-.101.138l-.14.198-.093.135c-.049.071-.096.144-.144.216a16.208 16.208 0 0 0-.25.393l-.046.074c-.07.116-.14.233-.207.35l-.055.098c-.048.086-.097.172-.144.26l-.071.134c-.04.076-.08.151-.118.227l-.075.15-.106.218a15.137 15.137 0 0 0-.488 1.14l-.062.162a15.38 15.38 0 0 0-.084.233l-.055.156c-.029.085-.057.17-.084.256l-.045.138c-.036.114-.07.228-.103.343l-.016.055c-.038.133-.074.267-.108.402l-.03.124-.069.282-.034.158-.053.253-.033.171a16.363 16.363 0 0 0-.168 1.088 17.897 17.897 0 0 0-.045.43l-.016.179-.018.26-.01.17c-.006.096-.01.193-.013.29l-.005.142a16.149 16.149 0 0 0 0 .87l.005.143c.004.097.007.194.013.29l.01.17.018.26.016.178a16.027 16.027 0 0 0 .213 1.518l.033.171.053.253.034.158.068.283.03.123c.035.135.071.27.11.403l.015.054c.034.115.068.23.103.343l.045.138c.027.086.055.171.084.256l.055.156.084.234.062.162a15.95 15.95 0 0 0 .415.982l.073.158.106.218.075.15.118.226.071.135c.047.087.096.173.144.259l.055.098c.067.118.136.234.207.35l.046.074c.056.091.112.181.17.27l.08.124c.048.072.095.144.144.215.03.046.062.09.094.136l.139.198.1.138a16.194 16.194 0 0 0 .65.827l.111.13.159.182.11.123.173.19.101.107c.072.076.144.15.217.223l.065.067c.096.096.192.19.29.283l.079.073.217.202.114.1c.063.056.126.113.19.168l.036.03zM22.4 28.8c-7.07 0-12.8-5.73-12.8-12.8S15.33 3.2 22.4 3.2 35.2 8.93 35.2 16s-5.73 12.8-12.8 12.8z" fill="#fff"/></svg>
